src/icons/solid/symbols/checklist.svg

<svg width="24" height="24" viewBox="0 0 24 24" fill="none" xmlns="http://www.w3.org/2000/svg">
<g clip-path="url(#clip0_402_308)">
<path d="M6.71973 11.7021C9.87962 11.7021 12.4403 14.2299 12.4404 17.3506C12.4404 20.4714 9.87973 23 6.71973 23C3.55985 22.9999 1 20.4713 1 17.3506C1.00017 14.23 3.55996 11.7023 6.71973 11.7021ZM21.3301 2.64551C22.25 2.65548 23 3.38638 23 4.29492V21.2422C22.9999 22.1507 22.25 22.8915 21.3301 22.8916H11.1504C11.6702 22.4868 12.1299 22.0126 12.5098 21.4795H21.3301C21.46 21.4794 21.5702 21.3705 21.5703 21.2422V4.29492C21.5703 4.16659 21.46 4.05771 21.3301 4.05762H20.3799V2.64551H21.3301ZM9.69043 15.1484C9.38043 14.9114 8.93043 14.9711 8.69043 15.2871L5.92969 18.9307L4.5 17.5186C4.23008 17.262 3.80025 17.2621 3.53027 17.5186C3.24027 17.7852 3.22023 18.2302 3.49023 18.5166L4.91992 19.9287C4.96991 19.9781 5.02033 20.0171 5.07031 20.0566C5.70031 20.5306 6.60033 20.4024 7.07031 19.7803L9.83008 16.1357C10.0698 15.8297 10.0001 15.3854 9.69043 15.1484ZM18.9502 18.1807C19.3399 18.1809 19.66 18.497 19.6602 18.8818C19.6599 19.2666 19.3398 19.5827 18.9502 19.583H15.6104C15.2205 19.583 14.9006 19.2668 14.9004 18.8818C14.9005 18.4968 15.2205 18.1807 15.6104 18.1807H18.9502ZM18.9502 14.8818C19.3398 14.8821 19.6599 15.1982 19.6602 15.583C19.6599 15.9678 19.3398 16.2839 18.9502 16.2842H15.6104C15.2205 16.2842 14.9006 15.968 14.9004 15.583C14.9006 15.1981 15.2205 14.8819 15.6104 14.8818H18.9502ZM18.9502 11.584C19.34 11.5842 19.6602 11.9002 19.6602 12.2852C19.6598 12.6698 19.3397 12.9861 18.9502 12.9863H13.7109C13.3212 12.9863 13.0014 12.67 13.001 12.2852C13.001 11.9 13.3209 11.584 13.7109 11.584H18.9502ZM9.88965 4.05762H8.94043C8.81043 4.05762 8.7002 4.16653 8.7002 4.29492V10.5664C8.23036 10.4282 7.75034 10.3491 7.27051 10.3096V4.29492C7.27051 3.38632 8.02043 2.64551 8.94043 2.64551H9.88965V4.05762ZM18.9502 8.29492C19.34 8.29519 19.6601 8.61111 19.6602 8.99609C19.6599 9.38091 19.3398 9.697 18.9502 9.69727H11.3203C10.9305 9.69724 10.6106 9.38105 10.6104 8.99609C10.6104 8.61096 10.9303 8.29494 11.3203 8.29492H18.9502ZM14.1396 1.27246C15.0496 0.729277 16.2198 1.02619 16.7598 1.91504C16.9298 2.22099 17.24 2.40813 17.5898 2.4082H18.46C18.72 2.41808 18.9404 2.62603 18.9404 2.88281V4.76855C18.9404 5.03521 18.72 5.24316 18.46 5.24316H11.79C11.52 5.24315 11.3105 5.02533 11.3105 4.76855V2.88281C11.3105 2.61617 11.53 2.40821 11.79 2.4082H12.6602C13.01 2.3983 13.3202 2.21113 13.4902 1.91504C13.6502 1.65834 13.8698 1.43047 14.1396 1.27246Z" fill="#212121"/>
</g>
<defs>
<clipPath id="clip0_402_308">
<rect width="24" height="24" fill="white"/>
</clipPath>
</defs>
</svg>

<svg xmlns="http://www.w3.org/2000/svg" width="24" height="24" fill="none" viewBox="0 0 24 24"><g clip-path="url(#a)"><path fill="currentColor" d="M6.72 11.702c3.16 0 5.72 2.528 5.72 5.649S9.88 23 6.72 23 1 20.471 1 17.35c0-3.12 2.56-5.648 5.72-5.648m14.61-9.056c.92.01 1.67.74 1.67 1.649v16.947c0 .909-.75 1.65-1.67 1.65H11.15c.52-.405.98-.88 1.36-1.412h8.82c.13 0 .24-.11.24-.238V4.295a.24.24 0 0 0-.24-.237h-.95V2.646zM9.69 15.148a.714.714 0 0 0-1 .14L5.93 18.93 4.5 17.519a.707.707 0 0 0-.97 0 .7.7 0 0 0-.04.998l1.43 1.412c.05.05.1.088.15.128.63.474 1.53.345 2-.277l2.76-3.644a.7.7 0 0 0-.14-.988m9.26 3.033c.39 0 .71.316.71.7 0 .386-.32.702-.71.702h-3.34a.71.71 0 0 1-.71-.701c0-.385.32-.701.71-.701zm0-3.3c.39.001.71.317.71.702s-.32.7-.71.701h-3.34a.71.71 0 0 1-.71-.701c0-.385.32-.701.71-.701zm0-3.297c.39 0 .71.316.71.701s-.32.701-.71.701h-5.24a.71.71 0 0 1-.709-.7c0-.386.32-.702.71-.702zM9.89 4.058h-.95c-.13 0-.24.109-.24.237v6.271a7 7 0 0 0-1.43-.256V4.295c0-.909.75-1.65 1.67-1.65h.95zm9.06 4.237c.39 0 .71.316.71.701s-.32.701-.71.701h-7.63a.71.71 0 0 1-.71-.7c0-.386.32-.702.71-.702zm-4.81-7.023a1.92 1.92 0 0 1 2.62.643c.17.306.48.493.83.493h.87c.26.01.48.218.48.475v1.886c0 .266-.22.474-.48.474h-6.67a.477.477 0 0 1-.48-.474V2.883c0-.267.22-.475.48-.475h.87c.35-.01.66-.197.83-.493.16-.257.38-.485.65-.643"/></g><defs><clipPath id="a"><path fill="currentColor" d="M0 0h24v24H0z"/></clipPath></defs></svg>
